img/header-collection/logo.svg

<svg width="116" height="40" viewBox="0 0 116 40" fill="none" xmlns="http://www.w3.org/2000/svg">
<path d="M115.505 1.99189C115.505 2.34537 115.419 2.67496 115.247 2.9759C115.075 3.27683 114.836 3.52044 114.526 3.69718C114.22 3.8787 113.886 3.96468 113.522 3.96468C113.169 3.96468 112.835 3.8787 112.529 3.70196C112.223 3.52522 111.984 3.28638 111.808 2.98067C111.631 2.67496 111.545 2.34537 111.545 1.98712C111.545 1.62408 111.636 1.29449 111.812 0.984004C111.989 0.673517 112.233 0.439458 112.534 0.26272C112.835 0.0907576 113.164 0 113.522 0C113.881 0 114.21 0.0859809 114.516 0.26272C114.822 0.439458 115.061 0.678294 115.237 0.984004C115.414 1.28971 115.505 1.62886 115.505 1.99189ZM113.522 0.248389C113.217 0.248389 112.93 0.324817 112.663 0.482449C112.395 0.64008 112.19 0.850256 112.032 1.11775C111.879 1.38525 111.803 1.67663 111.803 1.99189C111.803 2.30238 111.879 2.59376 112.032 2.86603C112.185 3.1383 112.395 3.34848 112.658 3.50133C112.921 3.65419 113.207 3.73062 113.518 3.73062C113.823 3.73062 114.11 3.65419 114.378 3.50133C114.645 3.34848 114.855 3.13353 115.013 2.86603C115.17 2.59854 115.247 2.30238 115.247 1.99667C115.247 1.69096 115.17 1.39958 115.018 1.13208C114.865 0.864586 114.655 0.649634 114.392 0.492002C114.129 0.33437 113.838 0.248389 113.522 0.248389ZM114.067 3.1192L113.408 2.13519H113.269V2.90425L113.537 2.95201V3.1192H112.543V2.95201L112.763 2.90425V1.01744L112.524 0.969674V0.812042H113.527C113.823 0.812042 114.053 0.864586 114.206 0.974451C114.358 1.08432 114.435 1.24195 114.435 1.44257C114.435 1.59065 114.392 1.71962 114.306 1.82948C114.22 1.93935 114.091 2.02055 113.924 2.07787L114.516 2.90425L114.717 2.95201V3.1192H114.067ZM113.905 1.45212C113.905 1.29449 113.866 1.18463 113.785 1.12253C113.704 1.06043 113.551 1.02699 113.322 1.02699H113.269V1.92024H113.336C113.537 1.92024 113.68 1.8868 113.771 1.81515C113.862 1.74828 113.905 1.62886 113.905 1.45212Z" fill="#25394E"/>
<path d="M0.0286603 36.9286L0 2.60305L0.0286603 36.9286ZM0.0477671 0.295898H12.8064C15.5339 0.295898 17.8124 0.501297 19.6323 0.916872C21.4522 1.33245 22.9139 1.93431 24.0173 2.72725C25.1208 3.52018 25.9089 4.4803 26.3723 5.61716C26.8356 6.74925 27.0697 8.01985 27.0744 9.43376C27.0744 10.6518 26.8786 11.7648 26.4821 12.7727C26.0857 13.7806 25.5363 14.6643 24.8294 15.4333C24.1224 16.1976 23.277 16.8377 22.2882 17.3536C21.2994 17.8694 20.2246 18.2516 19.0639 18.5048C20.7501 18.6767 22.2738 19.0159 23.64 19.5174C25.0061 20.019 26.1621 20.6734 27.1127 21.4759C28.0632 22.2784 28.7941 23.2289 29.3052 24.3323C29.8211 25.4358 30.079 26.6634 30.079 28.02C30.079 29.7062 29.7972 31.249 29.2287 32.6534C28.6555 34.0578 27.7623 35.2567 26.5442 36.255C25.3262 37.2534 23.7594 38.0272 21.8439 38.5813C19.9285 39.1354 17.6118 39.4124 14.9034 39.4172C12.7347 39.4172 10.5757 39.3933 8.42613 39.336C6.27661 39.2787 4.28949 39.25 2.47434 39.2548L0.033437 39.2596L0.0477671 0.295898ZM21.1179 9.72992C21.1179 8.58828 20.9459 7.58995 20.6068 6.73969C20.2676 5.88944 19.7183 5.17771 18.9636 4.6045C18.2089 4.03607 17.2296 3.61094 16.0307 3.32912C14.8269 3.05207 13.3605 2.90876 11.617 2.91354L5.60787 2.91832L5.6222 17.6402L11.98 17.6354C13.7808 17.6354 15.2712 17.4443 16.451 17.067C17.6309 16.6896 18.5671 16.1546 19.2502 15.4668C19.938 14.7789 20.4205 13.9525 20.6975 12.9829C20.9793 12.0132 21.1179 10.9289 21.1179 9.72992ZM24.0651 28.1394C24.0651 26.7828 23.8454 25.6125 23.4107 24.6285C22.9712 23.6397 22.2929 22.8229 21.3758 22.178C20.4539 21.5284 19.2693 21.046 17.8172 20.7307C16.365 20.4107 14.6215 20.253 12.5914 20.2578L5.6222 20.2626L5.63653 36.642C6.525 36.6802 7.45646 36.7088 8.42613 36.7279C9.25728 36.7661 10.1792 36.79 11.1871 36.7996C12.195 36.8091 13.1885 36.8139 14.1773 36.8139C15.9972 36.8139 17.5353 36.6085 18.7916 36.1977C20.0479 35.7917 21.0701 35.2137 21.8535 34.4685C22.6369 33.7234 23.2005 32.8206 23.5492 31.7506C23.8931 30.6758 24.0699 29.4721 24.0651 28.1394Z" fill="#25394E"/>
<path d="M42.2593 22.1402L42.2736 36.8907L48.1681 37.6694V39.2075L32.0514 39.2218V37.6837L36.6657 36.8955L36.6371 2.57003L31.6406 1.82008V0.281977L48.4547 0.267647C51.1822 0.26287 53.4655 0.506483 55.2949 0.988932C57.1244 1.47138 58.5909 2.164 59.6943 3.06203C60.7977 3.96005 61.5859 5.04914 62.0492 6.3293C62.5126 7.60946 62.7466 9.04726 62.7514 10.657C62.7514 12.1473 62.5364 13.4801 62.1018 14.6503C61.6671 15.8206 61.0843 16.8524 60.3487 17.7457C59.6131 18.6389 58.7628 19.3793 57.7932 19.9668C56.8235 20.5591 55.8204 21.0082 54.7743 21.3186L65.326 36.8764L69.5391 37.655V39.1931L60.215 39.2027L49.2524 22.1355L42.2593 22.1402ZM56.9716 11.063C56.9716 9.51538 56.7853 8.21611 56.4175 7.17478C56.0497 6.12868 55.4717 5.28798 54.6883 4.6479C53.9049 4.00782 52.897 3.55403 51.6694 3.28653C50.437 3.01904 48.9515 2.88051 47.2127 2.88529L42.2449 2.89007L42.2593 19.5322L47.399 19.5274C49.1807 19.5274 50.6806 19.365 51.8987 19.0449C53.1168 18.7249 54.1055 18.2233 54.8603 17.5307C55.615 16.8429 56.1547 15.9687 56.4843 14.9035C56.8092 13.8335 56.9716 12.5534 56.9716 11.063Z" fill="#25394E"/>
<path d="M100.221 2.51733L94.9949 1.76738V0.22928L108.265 0.219727V1.75783L103.268 2.51733L103.287 25.78C103.287 27.5617 103.068 29.2908 102.623 30.9627C102.179 32.6393 101.396 34.1249 100.273 35.4241C99.1506 36.7234 97.6173 37.7695 95.6731 38.5625C93.729 39.3554 91.2642 39.7566 88.2836 39.7614C83.1152 39.7662 79.246 38.6054 76.6809 36.2696C74.111 33.9386 72.8309 30.6331 72.8261 26.3579L72.807 2.54599L67.8105 1.79604V0.25794L83.3779 0.24361V1.78171L78.3862 2.53644L78.4053 25.9137C78.4053 27.4996 78.5964 28.9469 78.9785 30.2557C79.3559 31.5598 79.9577 32.6775 80.7793 33.609C81.6009 34.5405 82.6661 35.2522 83.975 35.7537C85.2838 36.2553 86.8649 36.5085 88.723 36.5037C90.7579 36.5037 92.4966 36.2505 93.9488 35.7442C95.4009 35.2426 96.5951 34.5309 97.5313 33.6233C98.4675 32.711 99.1554 31.6075 99.5901 30.3131C100.025 29.0138 100.24 27.5808 100.24 26.014L100.221 2.51733Z" fill="#25394E"/>
<path d="M114.547 36.4845C114.547 36.967 114.456 37.4255 114.27 37.8507C114.088 38.2758 113.84 38.6484 113.53 38.9684C113.219 39.2885 112.846 39.5416 112.412 39.7231C111.977 39.9094 111.519 40.0002 111.031 40.0002C110.53 40.0002 110.062 39.9094 109.636 39.7279C109.211 39.5416 108.844 39.2932 108.533 38.9732C108.223 38.6532 107.974 38.2806 107.793 37.8554C107.606 37.4303 107.516 36.9765 107.516 36.4893C107.516 36.0068 107.606 35.5435 107.788 35.1088C107.969 34.6741 108.218 34.3016 108.528 33.9911C108.839 33.6806 109.207 33.4322 109.632 33.2507C110.057 33.0644 110.52 32.9736 111.027 32.9736C111.509 32.9736 111.972 33.0644 112.407 33.2507C112.842 33.4322 113.214 33.6806 113.525 33.9911C113.835 34.3016 114.084 34.6741 114.265 35.1088C114.451 35.5387 114.547 36.0021 114.547 36.4845Z" fill="#25394E"/>
</svg>

<svg width="116" height="40" fill="none" xmlns="http://www.w3.org/2000/svg"><path d="M115.505 1.992a1.953 1.953 0 01-.979 1.705c-.306.182-.64.268-1.004.268a1.957 1.957 0 01-1.714-.984 1.942 1.942 0 01-.263-.994c0-.363.091-.693.267-1.003.177-.31.421-.545.722-.721a1.96 1.96 0 01.988-.263c.359 0 .688.086.994.263a1.986 1.986 0 01.989 1.73zM113.522.248a1.66 1.66 0 00-.859.234 1.73 1.73 0 00-.86 1.51c0 .31.076.602.229.874.153.272.363.482.626.635.263.153.549.23.86.23a1.73 1.73 0 001.495-.865c.157-.267.234-.564.234-.87a1.748 1.748 0 00-.855-1.505 1.67 1.67 0 00-.87-.243zm.545 2.871l-.659-.984h-.139v.77l.268.047v.167h-.994v-.167l.22-.048V1.017l-.239-.047V.812h1.003c.296 0 .526.053.679.162.152.11.229.268.229.469a.61.61 0 01-.129.386.798.798 0 01-.382.249l.592.826.201.048v.167h-.65zm-.162-1.667c0-.158-.039-.267-.12-.33-.081-.062-.234-.095-.463-.095h-.053v.893h.067c.201 0 .344-.033.435-.105.091-.067.134-.186.134-.363zM.029 36.929L0 2.603.029 36.93zM.048.296h12.758c2.728 0 5.006.205 6.826.62 1.82.416 3.282 1.018 4.385 1.811 1.104.793 1.892 1.753 2.355 2.89.464 1.132.698 2.403.702 3.817 0 1.218-.195 2.33-.592 3.339a8.461 8.461 0 01-1.653 2.66 9.254 9.254 0 01-2.54 1.92 12.86 12.86 0 01-3.225 1.152c1.686.172 3.21.51 4.576 1.012 1.366.502 2.522 1.156 3.473 1.959a8.227 8.227 0 012.192 2.856c.516 1.104.774 2.331.774 3.688 0 1.686-.282 3.229-.85 4.633-.573 1.405-1.467 2.604-2.685 3.602-1.218.998-2.785 1.772-4.7 2.326-1.916.554-4.232.831-6.94.836-2.17 0-4.328-.024-6.478-.081a205.28 205.28 0 00-5.952-.081l-2.44.005L.047.296zm21.07 9.434c0-1.142-.172-2.14-.511-2.99a4.95 4.95 0 00-1.643-2.136c-.755-.568-1.734-.993-2.933-1.275-1.204-.277-2.67-.42-4.414-.415l-6.01.004.015 14.722 6.358-.005c1.8 0 3.291-.19 4.471-.568 1.18-.377 2.116-.912 2.8-1.6a5.638 5.638 0 001.447-2.484c.281-.97.42-2.054.42-3.253zm2.947 18.41c0-1.357-.22-2.527-.654-3.512a5.87 5.87 0 00-2.035-2.45c-.922-.65-2.107-1.132-3.559-1.447-1.452-.32-3.196-.478-5.226-.473l-6.969.005.015 16.379c.888.038 1.82.067 2.79.086.83.038 1.752.062 2.76.072 1.008.01 2.002.014 2.99.014 1.82 0 3.358-.206 4.615-.616 1.256-.406 2.278-.984 3.061-1.73a6.426 6.426 0 001.696-2.717c.344-1.075.52-2.279.516-3.612zm18.195-6l.014 14.75 5.894.78v1.538l-16.117.014v-1.538l4.615-.788-.029-34.326-4.996-.75V.282L48.455.268c2.727-.005 5.01.238 6.84.72 1.83.483 3.296 1.176 4.4 2.074 1.103.898 1.89 1.987 2.354 3.267.464 1.28.698 2.718.702 4.328 0 1.49-.215 2.823-.65 3.993a10.672 10.672 0 01-1.752 3.096 10.017 10.017 0 01-2.556 2.22 12.694 12.694 0 01-3.019 1.353l10.552 15.557 4.213.779v1.538l-9.324.01-10.963-17.068-6.993.005zm14.712-11.077c0-1.548-.187-2.847-.555-3.888-.367-1.046-.945-1.887-1.729-2.527-.783-.64-1.791-1.094-3.019-1.361-1.232-.268-2.717-.406-4.456-.402l-4.968.005.014 16.642 5.14-.005c1.782 0 3.282-.162 4.5-.482 1.218-.32 2.206-.822 2.961-1.514.755-.688 1.295-1.562 1.624-2.627.325-1.07.488-2.35.488-3.841zm43.249-8.546l-5.226-.75V.23l13.27-.01v1.539l-4.997.76.019 23.262c0 1.782-.219 3.51-.664 5.183a11.059 11.059 0 01-2.35 4.461c-1.122 1.3-2.656 2.346-4.6 3.139-1.944.792-4.409 1.194-7.39 1.198-5.168.005-9.037-1.156-11.602-3.491-2.57-2.331-3.85-5.637-3.855-9.912l-.019-23.812-4.996-.75V.258L83.377.244v1.538l-4.992.754.02 23.378c0 1.586.19 3.033.572 4.342.378 1.304.98 2.422 1.801 3.353.822.931 1.887 1.643 3.196 2.145 1.309.501 2.89.755 4.748.75 2.035 0 3.774-.253 5.226-.76 1.452-.501 2.646-1.213 3.582-2.12a8.187 8.187 0 002.06-3.31c.434-1.3.649-2.733.649-4.3l-.019-23.497zm14.326 33.967c0 .483-.091.941-.277 1.367-.182.425-.43.797-.74 1.117a3.33 3.33 0 01-1.118.755 3.461 3.461 0 01-1.381.277c-.501 0-.969-.09-1.395-.272a3.44 3.44 0 01-1.103-.755 3.647 3.647 0 01-.74-1.118 3.347 3.347 0 01-.277-1.366 3.549 3.549 0 011.012-2.498c.311-.31.679-.559 1.104-.74a3.429 3.429 0 011.395-.277c.482 0 .945.09 1.38.277.435.181.807.43 1.118.74.31.31.559.683.74 1.118.186.43.282.893.282 1.375z" fill="#25394E"/></svg>
